Sources/FrostedUI/Resources/Icons.xcassets/pauseFilled12.imageset/pause-filled-12.svg

<svg width="12" height="12" viewBox="0 0 12 12" fill="none" xmlns="http://www.w3.org/2000/svg" data-fui-icon="true">
  <path
    d="M3.5 1C4.05228 1 4.5 1.44772 4.5 2V10C4.5 10.5523 4.05228 11 3.5 11H2.5C1.94772 11 1.5 10.5523 1.5 10V2C1.5 1.44772 1.94772 1 2.5 1H3.5ZM9.5 1C10.0523 1 10.5 1.44772 10.5 2V10C10.5 10.5523 10.0523 11 9.5 11H8.5C7.94772 11 7.5 10.5523 7.5 10V2C7.5 1.44772 7.94772 1 8.5 1H9.5Z"
    fill="currentColor"
  />
</svg>

<svg xmlns="http://www.w3.org/2000/svg" width="12" height="12" fill="none" data-fui-icon="true" viewBox="0 0 12 12"><path fill="currentColor" d="M3.5 1a1 1 0 0 1 1 1v8a1 1 0 0 1-1 1h-1a1 1 0 0 1-1-1V2a1 1 0 0 1 1-1zm6 0a1 1 0 0 1 1 1v8a1 1 0 0 1-1 1h-1a1 1 0 0 1-1-1V2a1 1 0 0 1 1-1z"/></svg>
